X: 4
T: The Old Copperplate
R: reel
M: 4/4
L: 1/8
K: Edor
|:E2 BE GE E2|edBA GE E2|D2 AD FD D2|dBAG FD D2|
E2 BE GE E2|edBA GE E2|EFGA BA (3Bcd|edBA GE E2:|
|:edBd e3f|edBA GE E2|dcBc d3e|dBAG FD D2|
edBd e2 Bd|edBA GE E2|EFGA BA (3Bcd|edBA GE E2:|

